X: 24598
T: M And M
R: reel
M: 4/4
K: Cmajor
GAGF (3(EFG) cG|EGcd eccA|GEFD EGce|gedf ec~c2|
cege ~f2 ga|gece dccA|GEFD EGce|gedg ec~c2:|
egge ~c3 d|eage dcAc|~G2 FD EGce|gecd ed~d2|
eg~g2 aege|cege dAcA|~G3 F EGce|1 gedg ec~c2:|2 gedg ecAB||
~c2 gc acge|~c2 ge dege|~c3 g acgc|GABd ~e2 dB|
~c3 g acge|~c2 ge (3(ABc) de|~f2 af egge|~d3 f edcB:|c4||

